images/3233531.svg

<?xml version="1.0" encoding="UTF-8"?>
<svg xmlns="http://www.w3.org/2000/svg" xmlns:xlink="http://www.w3.org/1999/xlink" width="300pt" height="300pt" viewBox="0 0 300 300" version="1.1">
<defs>
<g>
<symbol overflow="visible" id="glyph0-0">
<path style="stroke:none;" d="M 0.546875 1.9375 L 0.546875 -7.75 L 6.046875 -7.75 L 6.046875 1.9375 Z M 1.171875 1.328125 L 5.4375 1.328125 L 5.4375 -7.140625 L 1.171875 -7.140625 Z M 1.171875 1.328125 "/>
</symbol>
<symbol overflow="visible" id="glyph0-1">
<path style="stroke:none;" d="M 1.078125 -8.015625 L 2.546875 -8.015625 L 6.09375 -1.3125 L 6.09375 -8.015625 L 7.15625 -8.015625 L 7.15625 0 L 5.6875 0 L 2.125 -6.703125 L 2.125 0 L 1.078125 0 Z M 1.078125 -8.015625 "/>
</symbol>
</g>
</defs>
<g id="surface36205">
<rect x="0" y="0" width="300" height="300" style="fill:rgb(100%,100%,100%);fill-opacity:1;stroke:none;"/>
<path style="fill:none;stroke-width:1.2;stroke-linecap:butt;stroke-linejoin:miter;stroke:rgb(0%,0%,0%);stroke-opacity:1;stroke-miterlimit:10;" d="M 107.136719 198.085938 L 83.464844 185.429688 "/>
<path style="fill:none;stroke-width:1.2;stroke-linecap:butt;stroke-linejoin:miter;stroke:rgb(0%,0%,0%);stroke-opacity:1;stroke-miterlimit:10;" d="M 107.75 191.25 L 88.8125 181.125 "/>
<path style="fill:none;stroke-width:1.2;stroke-linecap:butt;stroke-linejoin:miter;stroke:rgb(0%,0%,0%);stroke-opacity:1;stroke-miterlimit:10;" d="M 129.933594 183.914062 L 107.136719 198.085938 "/>
<path style="fill:none;stroke-width:1.2;stroke-linecap:butt;stroke-linejoin:miter;stroke:rgb(0%,0%,0%);stroke-opacity:1;stroke-miterlimit:10;" d="M 83.464844 185.429688 L 82.59375 158.597656 "/>
<path style="fill:none;stroke-width:1.2;stroke-linecap:butt;stroke-linejoin:miter;stroke:rgb(0%,0%,0%);stroke-opacity:1;stroke-miterlimit:10;" d="M 82.59375 158.597656 L 105.390625 144.429688 "/>
<path style="fill:none;stroke-width:1.2;stroke-linecap:butt;stroke-linejoin:miter;stroke:rgb(0%,0%,0%);stroke-opacity:1;stroke-miterlimit:10;" d="M 88.207031 162.546875 L 106.445312 151.210938 "/>
<path style="fill:none;stroke-width:1.2;stroke-linecap:butt;stroke-linejoin:miter;stroke:rgb(0%,0%,0%);stroke-opacity:1;stroke-miterlimit:10;" d="M 82.59375 158.597656 L 58.921875 145.941406 "/>
<path style="fill:none;stroke-width:1.2;stroke-linecap:butt;stroke-linejoin:miter;stroke:rgb(0%,0%,0%);stroke-opacity:1;stroke-miterlimit:10;" d="M 105.390625 144.429688 L 129.058594 157.085938 "/>
<path style="fill:none;stroke-width:1.2;stroke-linecap:butt;stroke-linejoin:miter;stroke:rgb(0%,0%,0%);stroke-opacity:1;stroke-miterlimit:10;" d="M 129.058594 157.085938 L 129.933594 183.914062 "/>
<path style="fill:none;stroke-width:1.2;stroke-linecap:butt;stroke-linejoin:miter;stroke:rgb(0%,0%,0%);stroke-opacity:1;stroke-miterlimit:10;" d="M 122.835938 159.972656 L 123.535156 181.4375 "/>
<path style="fill:none;stroke-width:1.2;stroke-linecap:butt;stroke-linejoin:miter;stroke:rgb(0%,0%,0%);stroke-opacity:1;stroke-miterlimit:10;" d="M 129.058594 157.085938 L 151.855469 142.914062 "/>
<path style="fill:none;stroke-width:1.2;stroke-linecap:butt;stroke-linejoin:miter;stroke:rgb(0%,0%,0%);stroke-opacity:1;stroke-miterlimit:10;" d="M 151.855469 142.914062 L 175.527344 155.570312 "/>
<path style="fill:none;stroke-width:1.2;stroke-linecap:butt;stroke-linejoin:miter;stroke:rgb(0%,0%,0%);stroke-opacity:1;stroke-miterlimit:10;" d="M 157.203125 138.609375 L 176.140625 148.734375 "/>
<path style="fill:none;stroke-width:1.2;stroke-linecap:butt;stroke-linejoin:miter;stroke:rgb(0%,0%,100%);stroke-opacity:1;stroke-miterlimit:10;" d="M 150.984375 116.085938 L 151.417969 129.5 "/>
<path style="fill:none;stroke-width:1.2;stroke-linecap:butt;stroke-linejoin:miter;stroke:rgb(0%,0%,0%);stroke-opacity:1;stroke-miterlimit:10;" d="M 151.417969 129.5 L 151.855469 142.914062 "/>
<path style="fill:none;stroke-width:1.2;stroke-linecap:butt;stroke-linejoin:miter;stroke:rgb(0%,0%,0%);stroke-opacity:1;stroke-miterlimit:10;" d="M 175.527344 155.570312 L 198.324219 141.402344 "/>
<path style="fill:none;stroke-width:1.2;stroke-linecap:butt;stroke-linejoin:miter;stroke:rgb(0%,0%,0%);stroke-opacity:1;stroke-miterlimit:10;" d="M 198.324219 141.402344 L 197.886719 127.988281 "/>
<path style="fill:none;stroke-width:1.2;stroke-linecap:butt;stroke-linejoin:miter;stroke:rgb(0%,0%,100%);stroke-opacity:1;stroke-miterlimit:10;" d="M 197.886719 127.988281 L 197.449219 114.570312 "/>
<path style="fill:none;stroke-width:1.2;stroke-linecap:butt;stroke-linejoin:miter;stroke:rgb(0%,0%,0%);stroke-opacity:1;stroke-miterlimit:10;" d="M 191.925781 138.921875 L 191.574219 128.191406 "/>
<path style="fill:none;stroke-width:1.2;stroke-linecap:butt;stroke-linejoin:miter;stroke:rgb(0%,0%,100%);stroke-opacity:1;stroke-miterlimit:10;" d="M 191.574219 128.191406 L 191.226562 117.460938 "/>
<path style="fill:none;stroke-width:1.2;stroke-linecap:butt;stroke-linejoin:miter;stroke:rgb(0%,0%,0%);stroke-opacity:1;stroke-miterlimit:10;" d="M 198.324219 141.402344 L 210.160156 147.730469 "/>
<path style="fill:none;stroke-width:1.2;stroke-linecap:butt;stroke-linejoin:miter;stroke:rgb(0%,0%,100%);stroke-opacity:1;stroke-miterlimit:10;" d="M 210.160156 147.730469 L 221.996094 154.058594 "/>
<path style="fill:none;stroke-width:1.2;stroke-linecap:butt;stroke-linejoin:miter;stroke:rgb(0%,0%,100%);stroke-opacity:1;stroke-miterlimit:10;" d="M 197.449219 114.570312 L 185.613281 108.242188 "/>
<path style="fill:none;stroke-width:1.2;stroke-linecap:butt;stroke-linejoin:miter;stroke:rgb(0%,0%,0%);stroke-opacity:1;stroke-miterlimit:10;" d="M 185.613281 108.242188 L 173.78125 101.914062 "/>
<path style=" stroke:none;fill-rule:nonzero;fill:rgb(100%,100%,100%);fill-opacity:1;" d="M 193.449219 108.070312 L 201.449219 108.070312 L 201.449219 121.070312 L 193.449219 121.070312 Z M 193.449219 108.070312 "/>
<g style="fill:rgb(0%,0%,100%);fill-opacity:1;">
  <use xlink:href="#glyph0-1" x="193.449219" y="117.97168"/>
</g>
<path style="fill:none;stroke-width:1.2;stroke-linecap:butt;stroke-linejoin:miter;stroke:rgb(0%,0%,0%);stroke-opacity:1;stroke-miterlimit:10;" d="M 173.78125 101.914062 L 162.382812 109 "/>
<path style="fill:none;stroke-width:1.2;stroke-linecap:butt;stroke-linejoin:miter;stroke:rgb(0%,0%,100%);stroke-opacity:1;stroke-miterlimit:10;" d="M 162.382812 109 L 150.984375 116.085938 "/>
<path style="fill:none;stroke-width:1.2;stroke-linecap:butt;stroke-linejoin:miter;stroke:rgb(0%,0%,0%);stroke-opacity:1;stroke-miterlimit:10;" d="M 174.835938 108.695312 L 165.714844 114.363281 "/>
<path style="fill:none;stroke-width:1.2;stroke-linecap:butt;stroke-linejoin:miter;stroke:rgb(0%,0%,100%);stroke-opacity:1;stroke-miterlimit:10;" d="M 165.714844 114.363281 L 156.597656 120.03125 "/>
<path style=" stroke:none;fill-rule:nonzero;fill:rgb(100%,100%,100%);fill-opacity:1;" d="M 146.984375 109.585938 L 154.984375 109.585938 L 154.984375 122.585938 L 146.984375 122.585938 Z M 146.984375 109.585938 "/>
<g style="fill:rgb(0%,0%,100%);fill-opacity:1;">
  <use xlink:href="#glyph0-1" x="146.984375" y="119.487305"/>
</g>
<path style="fill:none;stroke-width:1.2;stroke-linecap:butt;stroke-linejoin:miter;stroke:rgb(0%,0%,100%);stroke-opacity:1;stroke-miterlimit:10;" d="M 221.996094 154.058594 L 234.070312 148.203125 "/>
<path style="fill:none;stroke-width:1.2;stroke-linecap:butt;stroke-linejoin:miter;stroke:rgb(0%,0%,0%);stroke-opacity:1;stroke-miterlimit:10;" d="M 234.070312 148.203125 L 246.148438 142.347656 "/>
<path style="fill:none;stroke-width:1.2;stroke-linecap:butt;stroke-linejoin:miter;stroke:rgb(0%,0%,0%);stroke-opacity:1;stroke-miterlimit:10;" d="M 225.667969 180.648438 L 223.832031 167.351562 "/>
<path style="fill:none;stroke-width:1.2;stroke-linecap:butt;stroke-linejoin:miter;stroke:rgb(0%,0%,100%);stroke-opacity:1;stroke-miterlimit:10;" d="M 223.832031 167.351562 L 221.996094 154.058594 "/>
<path style=" stroke:none;fill-rule:nonzero;fill:rgb(100%,100%,100%);fill-opacity:1;" d="M 217.996094 147.558594 L 225.996094 147.558594 L 225.996094 160.558594 L 217.996094 160.558594 Z M 217.996094 147.558594 "/>
<g style="fill:rgb(0%,0%,100%);fill-opacity:1;">
  <use xlink:href="#glyph0-1" x="217.996094" y="157.459961"/>
</g>
<path style="fill:none;stroke-width:1.2;stroke-linecap:butt;stroke-linejoin:miter;stroke:rgb(0%,0%,0%);stroke-opacity:1;stroke-miterlimit:10;" d="M 246.148438 142.347656 L 264.75 161.699219 "/>
<path style="fill:none;stroke-width:1.2;stroke-linecap:butt;stroke-linejoin:miter;stroke:rgb(0%,0%,0%);stroke-opacity:1;stroke-miterlimit:10;" d="M 243.457031 148.660156 L 258.335938 164.140625 "/>
<path style="fill:none;stroke-width:1.2;stroke-linecap:butt;stroke-linejoin:miter;stroke:rgb(0%,0%,0%);stroke-opacity:1;stroke-miterlimit:10;" d="M 264.75 161.699219 L 258.421875 173.535156 "/>
<path style="fill:none;stroke-width:1.2;stroke-linecap:butt;stroke-linejoin:miter;stroke:rgb(0%,0%,100%);stroke-opacity:1;stroke-miterlimit:10;" d="M 258.421875 173.535156 L 252.09375 185.371094 "/>
<path style="fill:none;stroke-width:1.2;stroke-linecap:butt;stroke-linejoin:miter;stroke:rgb(0%,0%,100%);stroke-opacity:1;stroke-miterlimit:10;" d="M 252.09375 185.371094 L 238.882812 183.007812 "/>
<path style="fill:none;stroke-width:1.2;stroke-linecap:butt;stroke-linejoin:miter;stroke:rgb(0%,0%,0%);stroke-opacity:1;stroke-miterlimit:10;" d="M 238.882812 183.007812 L 225.667969 180.648438 "/>
<path style="fill:none;stroke-width:1.2;stroke-linecap:butt;stroke-linejoin:miter;stroke:rgb(0%,0%,100%);stroke-opacity:1;stroke-miterlimit:10;" d="M 250.5625 178.679688 L 239.992188 176.792969 "/>
<path style="fill:none;stroke-width:1.2;stroke-linecap:butt;stroke-linejoin:miter;stroke:rgb(0%,0%,0%);stroke-opacity:1;stroke-miterlimit:10;" d="M 239.992188 176.792969 L 229.421875 174.902344 "/>
<path style=" stroke:none;fill-rule:nonzero;fill:rgb(100%,100%,100%);fill-opacity:1;" d="M 248.09375 178.871094 L 256.09375 178.871094 L 256.09375 191.871094 L 248.09375 191.871094 Z M 248.09375 178.871094 "/>
<g style="fill:rgb(0%,0%,100%);fill-opacity:1;">
  <use xlink:href="#glyph0-1" x="248.09375" y="188.772461"/>
</g>
<path style="fill:none;stroke-width:1.2;stroke-linecap:butt;stroke-linejoin:miter;stroke:rgb(0%,0%,0%);stroke-opacity:1;stroke-miterlimit:10;" d="M 58.921875 145.941406 L 47.085938 139.613281 "/>
<path style="fill:none;stroke-width:1.2;stroke-linecap:butt;stroke-linejoin:miter;stroke:rgb(0%,0%,100%);stroke-opacity:1;stroke-miterlimit:10;" d="M 47.085938 139.613281 L 35.25 133.285156 "/>
<path style="fill:none;stroke-width:1.2;stroke-linecap:butt;stroke-linejoin:miter;stroke:rgb(0%,0%,0%);stroke-opacity:1;stroke-miterlimit:10;" d="M 59.53125 139.105469 L 50.0625 134.042969 "/>
<path style="fill:none;stroke-width:1.2;stroke-linecap:butt;stroke-linejoin:miter;stroke:rgb(0%,0%,100%);stroke-opacity:1;stroke-miterlimit:10;" d="M 50.0625 134.042969 L 40.59375 128.980469 "/>
<path style="fill:none;stroke-width:1.2;stroke-linecap:butt;stroke-linejoin:miter;stroke:rgb(0%,0%,0%);stroke-opacity:1;stroke-miterlimit:10;" d="M 53.574219 150.246094 L 44.105469 145.183594 "/>
<path style="fill:none;stroke-width:1.2;stroke-linecap:butt;stroke-linejoin:miter;stroke:rgb(0%,0%,100%);stroke-opacity:1;stroke-miterlimit:10;" d="M 44.105469 145.183594 L 34.640625 140.121094 "/>
<path style=" stroke:none;fill-rule:nonzero;fill:rgb(100%,100%,100%);fill-opacity:1;" d="M 27.25 126.785156 L 35.25 126.785156 L 35.25 139.785156 L 27.25 139.785156 Z M 27.25 126.785156 "/>
<g style="fill:rgb(0%,0%,100%);fill-opacity:1;">
  <use xlink:href="#glyph0-1" x="27.25" y="136.686523"/>
</g>
</g>
</svg>

<svg xmlns="http://www.w3.org/2000/svg" xmlns:xlink="http://www.w3.org/1999/xlink" width="300pt" height="300pt" viewBox="0 0 300 300"><defs><symbol overflow="visible"><path d="M.547 1.938V-7.75h5.5v9.688zm.625-.61h4.266v-8.47H1.171zm0 0"/></symbol><symbol overflow="visible" id="a"><path d="M1.078-8.016h1.47l3.546 6.704v-6.704h1.062V0H5.688L2.124-6.703V0H1.078zm0 0"/></symbol></defs><g><path fill="#fff" d="M0 0h300v300H0z"/><path d="M107.137 198.086L83.465 185.43M107.75 191.25l-18.938-10.125M129.934 183.914l-22.797 14.172M83.465 185.43l-.87-26.832M82.594 158.598l22.797-14.168M88.207 162.547l18.238-11.336M82.594 158.598L58.922 145.94M105.39 144.43l23.67 12.656M129.06 157.086l.874 26.828M122.836 159.973l.7 21.464M129.06 157.086l22.795-14.172M151.855 142.914l23.672 12.656M157.203 138.61l18.938 10.124" stroke-width="1.2" stroke="#000" stroke-miterlimit="10" fill="none"/><path d="M150.984 116.086l.434 13.414" stroke-width="1.2" stroke="#00f" stroke-miterlimit="10" fill="none"/><path d="M151.418 129.5l.437 13.414M175.527 155.57l22.797-14.168M198.324 141.402l-.437-13.414" stroke-width="1.2" stroke="#000" stroke-miterlimit="10" fill="none"/><path d="M197.887 127.988l-.438-13.418" stroke-width="1.2" stroke="#00f" stroke-miterlimit="10" fill="none"/><path d="M191.926 138.922l-.352-10.73" stroke-width="1.2" stroke="#000" stroke-miterlimit="10" fill="none"/><path d="M191.574 128.19l-.347-10.73" stroke-width="1.2" stroke="#00f" stroke-miterlimit="10" fill="none"/><path d="M198.324 141.402l11.836 6.328" stroke-width="1.2" stroke="#000" stroke-miterlimit="10" fill="none"/><path d="M210.16 147.73l11.836 6.33M197.45 114.57l-11.837-6.328" stroke-width="1.2" stroke="#00f" stroke-miterlimit="10" fill="none"/><path d="M185.613 108.242l-11.832-6.328" stroke-width="1.2" stroke="#000" stroke-miterlimit="10" fill="none"/><path d="M193.45 108.07h8v13h-8zm0 0" fill="#fff"/><use xlink:href="#a" x="193.449" y="117.972" fill="#00f"/><path d="M173.78 101.914L162.384 109" stroke-width="1.2" stroke="#000" stroke-miterlimit="10" fill="none"/><path d="M162.383 109l-11.4 7.086" stroke-width="1.2" stroke="#00f" stroke-miterlimit="10" fill="none"/><path d="M174.836 108.695l-9.12 5.668" stroke-width="1.2" stroke="#000" stroke-miterlimit="10" fill="none"/><path d="M165.715 114.363l-9.117 5.668" stroke-width="1.2" stroke="#00f" stroke-miterlimit="10" fill="none"/><path d="M146.984 109.586h8v13h-8zm0 0" fill="#fff"/><use xlink:href="#a" x="146.984" y="119.487" fill="#00f"/><path d="M221.996 154.06l12.074-5.857" stroke-width="1.2" stroke="#00f" stroke-miterlimit="10" fill="none"/><path d="M234.07 148.203l12.078-5.855M225.668 180.648l-1.836-13.296" stroke-width="1.2" stroke="#000" stroke-miterlimit="10" fill="none"/><path d="M223.832 167.352l-1.836-13.293" stroke-width="1.2" stroke="#00f" stroke-miterlimit="10" fill="none"/><path d="M217.996 147.56h8v13h-8zm0 0" fill="#fff"/><use xlink:href="#a" x="217.996" y="157.46" fill="#00f"/><path d="M246.148 142.348l18.602 19.35M243.457 148.66l14.88 15.48M264.75 161.7l-6.328 11.835" stroke-width="1.2" stroke="#000" stroke-miterlimit="10" fill="none"/><path d="M258.422 173.535l-6.328 11.836M252.094 185.37l-13.21-2.362" stroke-width="1.2" stroke="#00f" stroke-miterlimit="10" fill="none"/><path d="M238.883 183.008l-13.215-2.36" stroke-width="1.2" stroke="#000" stroke-miterlimit="10" fill="none"/><path d="M250.563 178.68l-10.57-1.887" stroke-width="1.2" stroke="#00f" stroke-miterlimit="10" fill="none"/><path d="M239.992 176.793l-10.57-1.89" stroke-width="1.2" stroke="#000" stroke-miterlimit="10" fill="none"/><path d="M248.094 178.87h8v13h-8zm0 0" fill="#fff"/><use xlink:href="#a" x="248.094" y="188.772" fill="#00f"/><path d="M58.922 145.94l-11.836-6.327" stroke-width="1.2" stroke="#000" stroke-miterlimit="10" fill="none"/><path d="M47.086 139.613l-11.836-6.328" stroke-width="1.2" stroke="#00f" stroke-miterlimit="10" fill="none"/><path d="M59.53 139.105l-9.468-5.062" stroke-width="1.2" stroke="#000" stroke-miterlimit="10" fill="none"/><path d="M50.063 134.043l-9.47-5.063" stroke-width="1.2" stroke="#00f" stroke-miterlimit="10" fill="none"/><path d="M53.574 150.246l-9.47-5.062" stroke-width="1.2" stroke="#000" stroke-miterlimit="10" fill="none"/><path d="M44.105 145.184l-9.464-5.063" stroke-width="1.2" stroke="#00f" stroke-miterlimit="10" fill="none"/><path d="M27.25 126.785h8v13h-8zm0 0" fill="#fff"/><use xlink:href="#a" x="27.25" y="136.687" fill="#00f"/></g></svg>
